X:98
T:Soldiers Joy (lyrics)
C:Traditional
S:https://JamBuddy.live
M:4/4
L:1/8
R:Reel
K:D
Q:125
F2|"D"A2 F2 D2 F2|A2 d2d2F2|"D"A2F2D2F2|G2E2E2F2 | 
w: I am my mo-ther's pride and joy, I am my mo-ther's pride and joy, I 
"D"A2F2D2F2|"D"A2 d2d2e2 |"D"ffdd  e2c2|d2 d2 d4|!
w: am my mo-ther's pride and joy, I play a lit-tle tune called Sol-dier's joy.
w: Chick-en in the bread tray scrat-chin' out dough, Gran-ny will your dog bite? No, child, no.
|"D"AAAA AA A2 | "D"A2 d2 d2 z2 | "D"f2 d2 e2 c2| "D"d2 d2 d2 z2 |!
w: La-dies to the cen-ter and gents get chair Hold her don't you let her rest
|"D"A2 AA AA AA|"D"AAdd d2 z2| "D"AAAA AAAA | "A"EEE E3 z2 |!
w: Grass-hop-per sit-in on a sweet po-ta-to vine Grass-hop-per sit-in on a sweet po-ta-to vine
|"D"A2 AA AA AA|"D"A2  ddd d2 e| "D"f2 dd ee c2| "D"d2 d2 d2 z2 |!
w: Grass-hop-per sit-in on a sweet po-ta-to vine A-long comes a chick-en and says your mine!
|"D"A2 AA AA AA-|"D"AA2dddd2 | "D"AAAA AAA2 | "A"A2EEE E3 |!
w: I'm a gon-na get a dri-nk, don't you want to go? I'm a gon-na get a drink don't  you want to go
|"D"A2 AA AA AA-|"D"AA2  ddd d2| "D"f2 d2 e2 c2| "D"d4 z4 |!
w: I'm a gon-na get a dr-ink, don't you want to go? Hold on Sol-dier's joy.
|"D"A2AAA2 AA|"D"A2d3 z2| "D"A2A2A2A2 | "A"F2E4 z4 |!
w: Twen-ty-five cents for the mor-phine Fif-teen cents for the beer
|"D"A2AAA2 AA|"D"A2d3 z2| "D"fff2 d2 e2 c2| "D"d4 z4 |!
w: Twen-ty-five cents for the mor-phine Gon-na take me away from here


